X:6784
T:The Flowers of Limerick
O:england
M:4/4
L:1/8
R:reel
N:played in E flat on album, on tuned-down fiddle
D:The Smoky Chimney
K:G
DGGF G3 A|B2 Bd cBAF|D3 E F3 G|ABcA (3BcB AG|
DGGF G3 A|B2 Bd CaaC|d2 eg fdcA|1AGGF G3 E:|
2 AGGF G3 B|:dggf g3 a|bgga bgaf|d3 e f3 g|
affg agfe|dggf g3 a|bg g2 agfe|d2 (3efg fdcA|AGGF G4:|


